X:1519
T:Piper's Son, The
R:reel
N:"collected from J. O'Neill"
B:"O'Neill's Dance Music of Ireland, 1519"
T: ma.c an .piobaire.
Z:transcribed by John B. Walsh, walsh@math.ubc.ca 8/23/96
M:C|
L:1/8
K:Em
BEEc dcdB|A2 3FED FA A2|BEEF GABc|dcdB e2 dc|
BEEc dcdB|AD 3FED FA A2|BEEF GABc|dBAc BE E2||
fedef gfge|defg afdf|edef gfec|dBAc BE E2|
fedef gfec|defg afdf|g2 fd ecdA|3Bcd Ac BE E2||
